images/icons/trash.svg

<!-- Generated by IcoMoon.io -->
<svg version="1.1" xmlns="http://www.w3.org/2000/svg" width="16" height="16" viewBox="0 0 16 16">
<title>trash</title>
<path d="M13.467 3.267h-2.8v-0.467c0-0.8-0.667-1.467-1.467-1.467h-2.667c-0.733 0-1.4 0.667-1.4 1.467v0.467h-2.733c-0.2 0-0.4 0.133-0.4 0.333s0.133 0.4 0.4 0.4h0.667v8.667c0 1.067 0.867 2 2 2h5.8c1.067 0 2-0.867 2-2v-8.667h0.667c0.2 0 0.4-0.133 0.4-0.4-0.071-0.194-0.253-0.33-0.467-0.333v0zM5.867 2.8c0-0.4 0.333-0.733 0.733-0.733h2.667c0.4 0 0.733 0.333 0.733 0.733v0.467h-4.133v-0.467zM12.067 12.667c0 0.667-0.533 1.267-1.267 1.267h-5.8c0 0-0.001 0-0.001 0-0.699 0-1.266-0.567-1.266-1.266 0 0 0-0.001 0-0.001v0-8.667h8.333v8.667zM7.933 12.6c0.2 0 0.4-0.133 0.4-0.4v-6.533c0-0.2-0.133-0.4-0.4-0.4-0.2 0-0.4 0.133-0.4 0.4v6.533c0 0.2 0.2 0.4 0.4 0.4zM5.533 12.2c0.2 0 0.4-0.133 0.4-0.4v-5.733c0-0.2-0.133-0.4-0.4-0.4-0.2 0.067-0.4 0.2-0.4 0.4v5.733c0 0.2 0.2 0.4 0.4 0.4zM10.333 12.2c0.2 0 0.4-0.133 0.4-0.333v-5.8c0-0.2-0.133-0.4-0.4-0.4-0.2 0-0.4 0.133-0.4 0.4v5.733c0.067 0.2 0.2 0.4 0.4 0.4z"></path>
</svg>

<svg xmlns="http://www.w3.org/2000/svg" width="16" height="16" viewBox="0 0 16 16"><title>trash</title><path d="M13.467 3.267h-2.8V2.8c0-.8-.667-1.467-1.467-1.467H6.533c-.733 0-1.4.667-1.4 1.467v.467H2.4c-.2 0-.4.133-.4.333s.133.4.4.4h.667v8.667c0 1.067.867 2 2 2h5.8c1.067 0 2-.867 2-2V4h.667c.2 0 .4-.133.4-.4a.504.504 0 0 0-.467-.333zm-7.6-.467c0-.4.333-.733.733-.733h2.667c.4 0 .733.333.733.733v.467H5.867V2.8zm6.2 9.867c0 .667-.533 1.267-1.267 1.267H4.999a1.266 1.266 0 0 1-1.266-1.266V4h8.333v8.667zM7.933 12.6c.2 0 .4-.133.4-.4V5.667c0-.2-.133-.4-.4-.4-.2 0-.4.133-.4.4V12.2c0 .2.2.4.4.4zm-2.4-.4c.2 0 .4-.133.4-.4V6.067c0-.2-.133-.4-.4-.4-.2.067-.4.2-.4.4V11.8c0 .2.2.4.4.4zm4.8 0c.2 0 .4-.133.4-.333v-5.8c0-.2-.133-.4-.4-.4-.2 0-.4.133-.4.4V11.8c.067.2.2.4.4.4z"/></svg>
